X: 6468
T: Cat In The Corner, The
R: slide
M: 12/8
K: Gmajor
|:~B2B AGA ~B2B AGA|B2e d2B A3 AGA|
~B2B AGA ~B2B AGA|1 B2e d2A G3 G2A:|2 B2e d2A G3 GBd||
|:e3 edB e2f g2B|BAB d2B A3 ABd|
e3 edB e2f g2B|1 BAB d2B G3 GBd:|2 BAB d2B G3 G2A||

